X:1
T:Sabbata, CM
T:Henri Frederick Hemy, 1864
T:Sabbata, CM
T:Public Domain
C:Henri Frederick Hemy, 1864
Z:Public Domain
%%score ( 1 2 ) ( 3 4 )
L:1/8
M:3/4
K:A
V:1 treble 
V:2 treble 
V:3 bass 
V:4 bass 
V:1
 E2 | E4 E2 | (A2 G2) [EA]2 | [EB]4 E2 | [EA]4 [CA]2 | (F2 G2) [EA]2 | [^Dc]4 [DB]2 | [E-A]6 | %8
 [EG]4 [DE]2 | [CE]4 [CE]2 | ([EA]2 [DG]2) [CA]2 | [DB]4 [DE]2 | [CA]4 [EA]2 | (F2 G2) [FA]2 | %14
 ([EA]2 [Ac]2) [AB]2 | [GB]6 | A4 |] %17
V:2
 E2 | E4 E2 | E4 x2 | x4 E2 | x6 | D4 x2 | x6 | x6 | x6 | x6 | x6 | x6 | x6 | D4 x2 | x6 | x6 | %16
 A4 |] %17
V:3
 [A,C]2 | [A,C]4 [A,C]2 | ([A,C]2 [B,D]2) [A,C]2 | [G,D]4 [G,B,]2 | [A,C]4 [A,,A,]2 | %5
 [D,A,]4 [C,A,]2 | [B,,A,]4 [B,,F,]2 | [E,-C]6 | [E,B,]4 [E,G,]2 | [A,,A,]4 [A,,A,]2 | %10
 (C2 B,2) [E,A,]2 | [E,G,]4 [E,G,]2 | [F,A,]4 [C,A,]2 | (A,2 B,2) [^D,=C]2 | (C2 E2) [F,^D]2 | %15
 [E,D]6 | [A,,C]4 |] %17
V:4
 x2 | x6 | x6 | x6 | x6 | x6 | x6 | x6 | x6 | x6 | E,4 x2 | x6 | x6 | ^D,4 x2 | E,4 x2 | x6 | x4 |] %17

